X: 2201
T: The Reel of Mey
P: The Reel of Mey
C:James Aitken
R:Jig (8x48)
B:RSCDS 22-1
Z:Anselm Lingnau <anselm@strathspey.org>
M:6/8
L:1/8
K:Em
B,|:"Em"E2 F G2 A|B2 c B3|"D"AFD D2 F|"A"G2 E "B7"F2 B,|\
    "Em"E2 F G2 A|B2 c B3|
                          "B"AGF "B7"G2 F|"Em"E3 E2 D::\
"G"G2 B dBG|"D7"F2 A c2 F|"G"G2 B dBG|"A"A3 "Bm"A2 D|
"E"E2 G BGE|"B"^D2 F A2 D|"Em"EGA B2 c|"B"B3 B2 B,|\
"Em"E2 F G2 A|B2 c B3|
                      "D"AFD D2 F|"A"G2 E "B7"F2 B,|\
"Em"E2 F G2 A|B2 c B3|"B"AGF E2 ^D|"Em"E3 E2:|
%%center Book22/2201-Reel_of_Mey-AL.abc

%%sep 1 1 500
%%sep 1 1 500
